X:1
T:De Profundis Clamavi
T:Psalm 129
T:Nicolas Champion Formerly attrib. Josquin Des Prez
%%score { 1 2 3 4 }
L:1/8
Q:1/4=180
M:2/1
K:C
V:1 alto nm="Cantus"
V:2 tenor nm="Tenor"
V:3 bass nm="Quintus"
V:4 bass nm="Bassus"
V:1
"^De profundis" E16- | E8 (C8 | D8) E8- | E4 A,4 A,8- | A,8"^clamavi ad te Domine." F8 | F16 | %6
 E16- | E8 D4 C4 | B,8 A,4 C4- | C2 D2 E8 D2 C2 | F6 E2 E2 D2 D4- | D4 !courtesy!^C2 B,2 C6 D2 | %12
 D16- | D16 | z16 | z16 | z8"^Domine" C8- | C4 C4 C6 D2 | E8 z4"^exaudi vocem meam." F4 | G8 G8- | %20
 G4 F4 G4 F4- | F2 E2 E8 D4 | E16- | E16- | E16 | z16 | z16 | z16 | z16 | z16 | z8"^In vocem" D8 | %31
 G16 | G8 z4"^deprecationis meae." E4- | E4 E4 E4 E4 | F16- | F8 E8 | D4 F6 G2 A2 F2 | %37
 !courtesy!_B4 A6 G2 G4- | G4 !courtesy!^F2 E2 F8 | G16 | %40
 z8"^Si iniquitates obseruaveris Domine." D8 | G8 G4 G4 | G6 A2 B8 | E8 G8- | G8 G8 | c8 B8 | B16 | %47
 A8 A8 | B16 | z16 |"^Domine quis sustinebit." G12 G4 | G8 G8 | A8 F4 G4- | G2 F2 E2 D2 E8 | D16 | %55
 z16 | z16 | z8"^Sustinebit." D6 E2 | F4 E4 D4 E4- | E2 D2 D8 !courtesy!^C4 | D16 | z16 | %62
"^Quia apud te" A16 | A8 c8 | G8 B8- | B16 | z8"^propitiatio est," A8 | A4 A4 c4 c4 | G8 B8- | %69
 B16 | z8"^et propter legem tuam" A8 | A4 A4 c4- (3:2:2c2 B4 | A4 G4 F8 | E16 | z16 | %75
 z8"^sustinui te Domine." G4 G4 | G8 E4 G4- | G2 F2 E2 D2 C4 c4- | c4 B4 A8 | G16 | %80
 z8"^Sustinuit" G8 | c8 c8 | B8 z4"^anima mea in verbo eius." G4 | A4 B4 c8 | B16 | G8 A6 G2 | %86
 F4 E4 D8 | C16 | z8"^Speravit anima mea in Domino." C8 | F12 F4 | F8 F8 | G16 | A12 G4 | F8 E8 | %94
 D4 F8 E2 D2 | C16- | C16 || z16 | z16 | z16 | z16 | z16 | z16 | z4"^Usque ad noctem" E8 D4 | %104
 E8 C8 | B,8"^speret Isreal in Domino," z4 C4- | C4 D4 E4 F4 | G6 A2 B2 c2 B4- | %108
 B2 A2 A8 !courtesy!^G4 | A16 | z8"^quia apud dominum misericordia," A8 | A8 F8- | F4 G4 A4 B4 | %113
 c8 c8 | c4 c4 c4 c4 | G8 z4"^et copiosa apud Deum redemptio." G4 | G4 G4 B8 | A16 | A8 G4 G4 | %119
 E4 A6 G2 F2 E2 | D4 E8 D2 C2 | B,4 A,4 B,8 | A,16 | z16 | z16 | z16 | z16 |"^ex omnibus" E8 E8- | %128
 E4 E4 E8 | z4"^iniquitatibus eius." G4 G4 E4 | F4 G4 C8- | C8 G6 A2 | B4 c8 B4 | c16- | c16 | %135
 z16 | z16 | z16 |"^et spiritui sancto." G16 | G8 G8 | c16 | B4 A6 G2 G4 | A16 | %143
 z4"^Sicut erat in" c4 A4 c4- | c2 B2 A2 G2 A4 E4 | E16- | E16 |"^principio" z4 E4 E4 G4- | %148
 G2 F2 E2 D2 E4 B,4 | B,16- | B,16 |"^et nunc et semper," B,8 B,6 C2 | D4 E6 D2 D4- | D4 ^C4 D8 | %154
 z16 | z16 | z16 | z8"^et in secula seculorum" G8- | G4 G4 G4 G4 | G8 c6 B2 | A4 G4"^Amen," c8 | %161
 B8 z4"^seculorum Amen." A4- | A2 G2 G4 A6 G2 | F2 E2 E8 D4 | E16- | E16- | !fermata!E16 |] %167
V:2
 z8"^De profundis" A,8- | A,16 | (F,8 G,8) | A,12 D,4 | D,16 | z8"^clamavi ad te Domine." D8 | %6
 C4 A,6 G,2 G,4 | A,2 G,2 C4 B,4 A,4- | A,4 G,4 (A,8 |"^deprecationis meae." C12) B,4 | %10
 A,8 G,4 F,4 | E,12 D,4 | D,16 | z16 | z16 | z16 | z8 z4"^Domine" A,4- | A,4 A,4 A,8 | %18
 z8"^exaudi vocem meam." C8 | C16 | C12 D4 | B,4 C4 A,8 | z8"^Fiant aures tuae." A,8 | C6 D2 B,8 | %24
 A,4 C8 B,2 A,2 | G,4 A,8 G,4 | A,8 z8 | z16 | z16 | z16 | z16 | z16 | z8"^In vocem" E,8 | A,16 | %34
 A,8 z4 A,4- |"^deprecationis meae." A,4 A,4 A,4 A,4 | !courtesy!_B,8 A,8 | z4 D6 B,2 C4 | D16 | %39
 B,16 | z16 |"^Si iniquitates obseruaveris" G,8 C8 | C4 C4 D8 | C8 E8- | E8 E8 | E8 E8 | %46
"^Domine." E16- | E16- | E16 | C8 D8 | E8 z4"^Domine quis sustinebit." E4- | E4 E4 E4 E4 | %52
 F2 E2 D2 C2 D4 E4- | E2 D2 D8 !courtesy!^C4 | D16 | z16 | z16 | z16 | %58
 z4"^Sustinebit." A,6 B,2 C4 | D4 G,4 A,8 | A,16 | z8"^Quia apud te" D8- | D8 D8 | F8 C8 | E16 | %65
 z16 | z16 |"^propitiatio est," A,8 A,4 A,4 | C4 C4 G,8 | B,16 | z16 | %71
"^et propter legem tua." A,8 A,4 A,4 | C4 C4 D8 | E16 | z16 | z8"^sustinui te Domine." B,8 | %76
 C12 C4 | C8 C8 | C8 D8 | E8 z8 |"^Sustinuit anima mea" E8 D4 D4 | C4- (3C2 D2 E2 F4 E4- | %82
 E2 D2 D8 C2 B,2 | A,4 G,4 A,8 | G,8 z4"^in verbo eius." D4 | E8 F6 E2 | D2 C2 C8 B,4 | %87
 C8"^Speravit anima mea in Domino." E8 | E12 E4 | D8 D8 | C8 C8 | E6 D2 E2 D2 C2 B,2 | A,16 | %93
 z8 C8 | A,8 B,8 | A,16- | A,16 || z16 | z16 | z16 | z16 | z16 | z16 | z16 | %104
 z8 z4"^Usque ad noctem" A,4- | A,4 G,4 A,8 | F,8 E,8 | z4"^speret Israel in Domino." E8 E4 | %108
 E8 E8 | C6 DE F4 E4- | E2 D2 D8 !courtesy!^C4 | D16- | D16 | z16 | z16 |"^Misericordia" E8 E4 E4 | %116
 E4 E4 D8 | z4"^et copiosa" D4 D4 D4 | F8 E8 | z4"^apud eium redemptio." D4 D4 D4 | %120
 B,4 C8 B,2 A,2 | G,4 A,8 !courtesy!^G,4 | A,16 | z16 | z16 | z16 | z16 | z8"^ex omnibus" G,8- | %128
 G,8 G,8- | G,4 G,6 A,2 B,2 C2 | D8 z4"^iniquitatibus eius." A,4 | A,4 A,4 B,8 | D4 E4 D8 | C16- | %134
 C16 | z16 | z16 | z16 |"^et spiritui sancto." E12 D4 | C4 B,4 E8 | E16 | E16- | E16- | E16 | %144
 z4"^Sicut erat," C4 A,4 C4- | C2 B,2 A,2 G,2 A,4 E,4 | E,8 z4"^erat," G,4- | G,2 A,2 B,4 E,8 | %148
 z4"^in principio" G,6 A,2 B,4 | E,4 G,6 A,2 B,4 | E,8 z8 | z8"^et nunc et semper," E8 | %152
 A,4 C4 D4 G,4 | A,16 |"^et in secula" D12 D4 |"^Et in secula seculorum" F6 E2 D4 C4 | %156
 F4 E6 D2 D4 | E16- | E16- | E16 | z8"^seculorum." C6 D2 | E4 D6 C2 A,4 | B,8 z4 A,4- | %163
"^Et in secula seculorum" A,4 A,4 A,4 A,4 | A,8 C6 B,2 | A,4 G,4"^Amen." C8 | !fermata!B,16 |] %167
V:3
 z16 | z16 | z16 | z16 | z16 | z16 | z16 | z16 |"^De profundis" E,16- | E,8 (C,8 | D,8) E,8- | %11
 E,4 A,,4 A,,8- | A,,8"^clamavi at te Domine." F,8 | F,16 | E,16 | E,8 D,4 C,4 | B,,8 A,,8 | %17
"^Domine exaudi" F,12 F,4 | E,4 E,4 A,8 | G,8 z4"^vocem meam." G,4- | G,4 A,4 G,4 A,4- | %21
 A,2 G,2 E,4 F,8 | E,16- | E,16 | z8"^Fiant aures tuae" E,8- | E,8 G,8 | F,8 E,8 | G,16 | %28
 D,8 z4"^intendentes" G,4 | A,6 B,2 C4 D4- | D2 C2 C8 B,4 | C16- | C16- | C16 |"^in vocem" z8 A,8 | %35
 D8 C8 |"^deprecationis meae." F,6 F,2 F,4 F,4 | F,8 G,8 | A,16 | G,16- | G,16 | z16 | z16 | %43
"^Si iniquitates" E,8 G,8 | G,12 G,4 | A,8 G,8 | z4"^obseruaveris Domine," G,8 G,4 | C8 C8 | B,16 | %49
 A,8 A,8 | B,16- | B,16 | z16 | z16 | z8"^Domine quis" A,8 | B,4 A,8 D4- | %56
 D2 CB, C4 C2 B,2"^sustinebit." B,4- | B,2 A,2 A,6 G,2 G,4 | A,8 F,4 G,4- | G,2 F,2 E,2 D,2 E,8 | %60
 D,16- | D,16- | D,16 | z16 | z16 |"^Quia apud te" B,16 | B,8 D8 | A,8 C8- | C8 z8 | %69
 z8"^propitiatio est," B,8 | B,4 B,4 D4 D4 | A,8 C8- | C8 z8 | %73
"^et propter legem tuam" A,8 A,4 A,4 | C6 B,2 A,4 G,4 | F,8 E,8 |"^sustinui te Domine." G,8 G,8- | %77
 G,8 A,8- | A,8 A,8 | B,8 G,8- | G,4 G,4 D,8 |"^Sustinuit anima mea." z4 A,4 A,4 A,4 | %82
 D,8 D,4 E,4 | F,4 G,6 F,2 F,4 | G,16 | z16 | z16 |"^Speravit anima mea" G,8 G,8- | %88
 G,4 G,4 E,4 E,4 | F,8 F,8 | A,16 | z8"^in Domino." E,8 | F,8- F,4 G,4 | A,8 E,8 | F,16 | E,16- | %96
 E,16 || z8"^A custodia matutina" G,8- | G,4 G,4 G,4 G,4 | D,8 D,8 | F,8 D,8 | A,16 | %102
 z4"^usque ad noctem" A,8 G,4 | A,8 F,8 | E,16 |"^speret Israel in Domino." z8 E,8 | A,8 G,8- | %107
 G,8 G,8 | C8 B,8 | A,12 G,4 | F,6 E,D, E,8 | D,8 z8 |"^Quia apud Dominum misericordia" A,8 A,8 | %113
 F,12 G,4 | A,4 B,4 C8 | C8 C4 C4 | C4 C4 G,8 | z16 | z16 | z16 | z4"^redemptio," C,8 D,4 | %121
 E,4 F,4 E,8 |"^et ipse redimet Israel" z8 F,8 | G,8 A,8 | A,12 A,4 | A,8 G,4 A,4- | %126
 A,2 B,2 C8 B,4 | C8 C8 | z8"^ex omnibus" C8 | C4 C4 C8 | z4"^iniquitatibus eius." G,4 A,6 G,2 | %131
 F,4 F,4 E,4 G,4- | G,4 E,4 F,4 G,4 | C,8"^Gloria patri" G,8 | G,4 G,4 A,8 | B,8 z4"^et fi-" G,4- | %136
 G,4 A,4 G,4 A,4- | A,2 G,2"^lio" E,4 F,8 |"^et spiritui sancto." E,8 G,8- | G,4 F,4 E,4 D,4 | %140
 C,8 E,8 | G,6 A,2 B,8 | A,4"^Sicut erat" C4 A,4 C4- | C2 B,2 A,2 G,2 A,4 E,4 | E,16- | E,16 | %146
 z8 z4"^in principio" E,4 | E,4 G,6 F,2 E,2 D,2 | E,4 B,,4 B,,8 | z8 z4"^et nunc et semper." E,4 | %150
 E,4 G,6 A,2 B,2 C2 | D8 G,8 | F,4 G,6 F,2 D,4 | E,8 D,8 | A,12 A,4 | A,4 A,4 A,8 | %156
 z8"^seculorum" A,8 | B,8 B,8 | G,16 |"^Amen." C6 B,2 A,4 G,2 F,2 | E,2 D,2 G,8 F,4 | %161
 G,6 F,2 D,4 E,4 | F,4 G,4 E,8 | (F,16 | E,16-) | E,16- | !fermata!E,16 |] %167
V:4
 z16 | z16 | z16 | z16 | z16 | z16 | z16 | z16 |"^De profundis" z8 A,,8- | A,,16 | (F,,8 G,,8) | %11
 A,,12 D,,4 | D,,16 | z8"^clamavi ad te Domine." D,8 | C,4 A,,6 G,,2 G,,4 | %15
 A,,2 G,,2 C,4 B,,4 A,,4- | A,,4 G,,4 A,,8 | z4"^Domine exaudi" F,,6 G,,2 A,,2 B,,2 | %18
 C,4 C,4 F,,4 F,,4 | C,8"^vocem meam." C,6 D,2 | E,4 F,4 E,4 D,4- | D,4 C,4 D,8 | A,,16- | %23
 A,,8 z8 |"^Fiant aures tuae" A,,16 | C,8 B,,8 | A,,8 C,8- | C,8 G,,8 | %28
 z4"^intendentes" D,4 E,6 C,2 | F,16 | E,4- (3E,2 D,2 C,2 D,8 | C,16- | C,16 | z8"^in vocem" A,,8 | %34
 D,16 | D,8 z8 |"^deprecationis meae." D,6 D,2 D,4 D,4 | D,8 E,8 | D,16 | G,,16- | G,,16 | z16 | %42
 z8"^Si iniquitates" G,,8 | C,8 C,4 C,4 | C,6 D,2 E,8 |"^obseruaveris Domine," A,,8 E,8- | %46
 E,8 E,8 | A,,8 A,,8 | E,16 | F,8 F,8 | E,16- | E,16 | z16 | z16 | %54
"^Domine quis sustinebit." D,12 D,4 | D,8 D,8 | E,8 C,4 D,4- | D,2 C,2 B,,2 A,,2 B,,8 | %58
 A,,8 D,4 C,4 | B,,8 A,,8 | z16 | z16 | z16 | z16 |"^Quia apud te" E,16 | E,8 G,8 | D,8 F,8- | %67
 F,16 | z8"^propitiatio est," E,8 | E,4 E,4 G,4 G,4 | D,8 F,8- | F,16 | z16 | %73
 z8"^et propter legem tuam sustinui te Domine." A,,8 | A,,4 A,,4 C,4 C,4 | D,8 E,8 | C,16 | %77
 C,8 F,8- | F,8 F,8 | E,12 D,4 | C,8 B,,8 | A,,16 | G,,16 | z16 | z16 | z16 | %86
 z8"^Speravit anima mea in Domino." G,,8 | C,16- | C,8 C,8 | D,8 D,8 | F,8 F,8 | C,16 | z8 D,8- | %93
 D,8 C,8 | D,16 | A,,16- | A,,16 ||"^A custodia matutina" C,12 C,4 | C,4 C,4 G,,8 | %99
 G,,8 B,,6 G,,2 | D,16 | z4"^usque ad noctem speret Israel in Domino." D,8 C,4 | D,8 B,,8 | %103
 A,,8 z8 | z8 A,,8 | E,8 A,,8- | A,,4 B,,4 C,6 D,2 | E,8 E,4 E,4 | E,8 E,8 | A,,16- | A,,16 | %111
 D,16- | D,16 | z16 | z16 | z16 | z16 | z16 | z16 | z16 | z16 | z16 |"^Et ipse redimet" A,,8 D,8 | %123
 C,8 F,8- | F,4 F,4 F,8 | z4"^Israel." F,4 E,4 F,4- | (3:2:2F,2 E,4 D,2 C,2 D,8 | C,16- | C,16- | %129
 C,16 | z16 | z16 | z16 | z8"^Gloria patri, et filio" C,8- | C,4 C,4 C,8 | D,8 E,8- | %136
 E,4 F,4 E,4 F,4- | F,2 E,2 E,8 D,4 | E,8 z4"^et spiritui sancto," E,4- | E,4 D,4 C,4 B,,4 | %140
 A,,16 | E,16 | A,,16- | A,,16- | A,,16 | z4"^Sicut erat" C,4 A,,4 C,4- | %146
 C,2 B,,2 A,,2 G,,2 A,,4 E,,4 | E,,16- | E,,16 | z4"^in principio et nunc et semper" E,4 E,4 G,4- | %150
 (3:2:2G,2 F,4 E,2 D,2 E,4 B,,4 | B,,8 E,8 | D,4 C,4 B,,8 | A,,8"^et in secula" D,8- | %154
 D,4 D,4 D,4 D,4 | D,8"^seculorum" F,6 E,2 | D,4 C,4"^Amen." F,8 | E,16- | E,16 | %159
 z8"^et in secula seculorum" C,8- | C,4 B,,4 A,,8 | G,,6 A,,2 B,,4 C,4 | D,4 E,4 A,,8 | %163
"^Amen." (D,16 | (3:2:2A,,16) B,,8 | (C,8 A,,8) | !fermata!E,16 |] %167

